X: 2
T: President Garfield's
R: hornpipe
M: 4/4
L: 1/8
K: Dmaj
GDB,D GDB,D | GFGA BABc | dAFA dAFA | d^cde d=cBA |GDB,D GDB,D | GFGA BABc | defe dcBA | (3GAG FA G2 :|ecGE CEGe | dBGD B,DGd | ^cded =cAFA | GABc dGgf |ecGE CEGe | dBGD B,DGd | ^cdfe d=cBA | G2 F2 G2 :|dA (3FGA dAFA | dc (3def fe (3fga | aece ae (3cde | a^gab (3a=gf (3edc |dAFA dAFA | d2 de f2 fg | (3aba c'b agfe |1 d2 c2 d2 :|bgdB (3GAB db | afdA (3FGA da | gcba gcba | fdba fdd'c' |bgdB GBdb | afdA FAda | ^gac'b (3aba (3gfe | dA fe d2 :|


Tune 419	Setting 419

